X: 73
T: Premier Trio pour Piano, Violon et Violoncelle	 Op. 8
C: Fryderyk] [Chopin
%%abc-version 2.0
%%abcx-abcm2ps-target-version 5.9.1 (29 Sep 2008)
%%abc-creator hum2abc beta
%%abcx-conversion-date 2021/10/03 11:23:56
%%abc-edited-by Jędrzej Mróz
%%abc-edited-by Mateusz Mrugas
%%abc-edited-by Emilia Ziętek
%%abc-edited-by Jędrzej Mróz
%%abcx-initial-encoding-date 2019-10-03
%%humdrum-veritas 1715658246
%%humdrum-veritas-data 1215929162
%%linebreak <none>
%%barnumbers 0
L: 1/8
M: 3/4
N: Derived from 008-1-Sm-002.krn
P: Premier Trio | pour Piano, Violon et Violoncelle
Q: "Vivace."
%%staves [1 2 3 4]
V: 1 clef=treble
V: 2 clef=bass
V: 3 clef=treble
V: 4 clef=treble
K: G
[V:1] E2 [I:setbarnb 1]| 
[V:2] !accent!C2 | 
[V:3] g2- | 
[V:4] G2- | 
[V:1] D2^C2=C2 | 
[V:2] B,2_B,2A,2 | 
[V:3] g2!wedge!g'2!accent!f2 | 
[V:4] G2g2F2 | 
[V:1] B,2_B,2A,2 | 
[V:2] G,4F,2 | 
[V:3] ee'fe!accent!d2 | 
[V:4] EeFED2 | 
[V:1] G,4[G2=B,2] | 
[V:2] E,2_E,2D,2 | 
[V:3] cc'cdBc | 
[V:4] CcCDB,C[K:clef=bass] | 
[V:1] [F2C2]!wedge![G2B,2]D2 | 
[V:2] D,2G,,2z2[K:clef=tenor] | 
[V:3] {/B}.A2.G2z2 | 
[V:4] {/B,}.A,2.G,2z2 | 
[V:1] G2A2B2 | 
[V:2] B,2C2!accent!DC | 
[V:3] B,G,E,CF,D | 
[V:4] G,,E,C,A,,D,D,, | 
[V:1] G4A2 | 
[V:2] B,2CB,A,2 | 
[V:3] B,G,A,B,CD | 
[V:4] G,,B,,C,D,E,^F, | 
[V:1] B4cB | 
[V:2] G,2G2E2 | 
[V:3] B,CDBAG | 
[V:4] G,A,B,DCE | 
[V:1] A2B2E2 | 
[V:2] FE!accent!D4 | 
[V:3] FAd=FEB | 
[V:4] DCB,DCB, | 
[V:1] A2B2c2 | 
[V:2] C2D2ED | 
[V:3] cA=FB^Ge | 
[V:4] A,=FDB,EE, | 
[V:1] !accent!A4B2 | 
[V:2] C2=FED2 | 
[V:3] cABcde | 
[V:4] A,CDE^F^G | 
[V:1] c2>d2e2 | 
[V:2] C2A,2AG | 
[V:3] cdebae | 
[V:4] ABcBc^c | 
[V:1] A2>z2z2 | 
[V:2] ^FED2z2 | 
[V:3] fga^c'd'f | 
[V:4] defgfd[K:clef=treble] | 
[V:1] !accent!D6 | 
[V:2] z6 | 
[V:3] d'c'2b_ba- & e2_ed^c=c | 
[V:4] cAFGEF | 
[V:1] !wedge!G2z2z2 | 
[V:2] z2A,4 | 
[V:3] ag2^f=fe- & B2_BA^G=G | 
[V:4] GE^CDB,C[K:clef=bass] | 
[V:1] z2!accent!E4 | 
[V:2] D2z2z2[K:clef=bass] | 
[V:3] ed2^c=cB- & =F2E2^D=D | 
[V:4] D_B,^G,A,F,G, | 
[V:1] A2z2z2 | 
[V:2] z2!accent!B,,2A,,B,, | 
[V:3] BA2G^FG & C2B,2[_EC]D | 
[V:4] A,=F,^D,E,A,,B,, | 
[V:1] E^DEFGA | 
[V:2] C,6 | 
[V:3] E4_E2 & [G6C6G,6] | 
[V:4] C,6 | 
[V:1] BcedBG | 
[V:2] G,,6 | 
[V:3] [G6D6B,6G,6] | 
[V:4] G,,6 | 
[V:1] E4c2 | 
[V:2] C,6 | 
[V:3] d4c2 & [G6E6] | 
[V:4] !trill!C,B,,C,D,E,F, | 
[V:1] D4B2- | 
[V:2] G,,6 | 
[V:3] c4B2 & [G6D6] | 
[V:4] G,A,CB,G,D, | 
[V:1] B2G2^F2 | 
[V:2] G,,F,,G,,A,,B,,^D, | 
[V:3] [B4D4]A2 & x4^DF | 
[V:4] G,,4B,,2 | 
[V:1] !accent!E4G2 | 
[V:2] E,^F,A,G,E,^C, | 
[V:3] A2G4 & E6 | 
[V:4] E,4^C,2 | 
[V:1] D2^CD=cB |[1 
[V:2] D,2z2.D,,2 | 
[V:3] [D2B,2]z2!accent![EC^F,]D | 
[V:4] D,2z2[D,2D,,2] | 
[V:1] !wedge!G2z2 [I:setbarnb 24]:|][2 
[V:2] .G,,2z2 :|]  
[V:3] [G2B,2G,2]z2 :|]  
[V:4] G,,2G,,,2 :|]  
[V:1] G2z2B2 ]|: 
[V:2] !wedge!G,,2z2G,2 ]|:  
[V:3] [GB,G,]DGB!accent!d2- ]|:  
[V:4] G,,2z2D2- ]|:  
[V:1] A2^G2=G2 | 
[V:2] F,2=F,2E,2 | 
[V:3] d2!wedge!d'2c2- | 
[V:4] D2[K:clef=treble]!wedge!d2[K:clef=bass]C2- | 
[V:1] F2=F2E2 | 
[V:2] ^D,2=D,2^C,2 | 
[V:3] cB!trill!A^G!accent!A2 | 
[V:4] CB,!trill!A,^G,A,2 | 
[V:1] _E2D2=E2 | 
[V:2] =C,2B,,2C,2 | 
[V:3] aAGgGA | 
[V:4] AA,G,GG,A, | 
[V:1] ^F2G2z2 | 
[V:2] D,2E,2z2 | 
[V:3] !wedge!F2!wedge!G2z2 | 
[V:4] [C2A,2D,2][B,2G,2E,2]z2 | 
[V:1] !wedge!^G2!wedge!A2z2 | 
[V:2] !wedge!=F,2!wedge!^F,2z2 | 
[V:3] !wedge![^g2^G2]!wedge![a2A2]z2 | 
[V:4] [D2B,2=F,2][_E2C2^F,2]z2 | 
[V:1] ^A2B2^dB | 
[V:2] F,2B,,2z2 | 
[V:3] [^a2^A2][bB]f^de | 
[V:4] !wedge![=E2^C2F,2]!wedge![^D2B,2]z2 | 
[V:1] F4^A2 | 
[V:2] .F,2.F,,2.F,,2 | 
[V:3] f^gfe^cf | 
[V:4] [E2^A,2F,2][E2A,2F,2][E2A,2F,2] | 
[V:1] B2z2B2 | 
[V:2] .B,,2z2!accent!B,2 | 
[V:3] B2z2^DG | 
[V:4] [^D2^F,2B,,2]B,,,2B,E | 
[V:1] !accent!c4B2- | 
[V:2] B,2A,2G,2 | 
[V:3] FAc^deg | 
[V:4] ^DCDFGE | 
[V:1] B2A2G2 | 
[V:2] ^D,2F,2E,2 | 
[V:3] a^dfBge | 
[V:4] FB^D2EG | 
[V:1] FE^DEGF | 
[V:2] C,6 | 
[V:3] AEA,E^A,E | 
[V:4] .C2C,2C,2 | 
[V:1] E2^D2B2 | 
[V:2] B,,2z2B,2 | 
[V:3] G,B,^F,B, ^DG | 
[V:4] B,,2B,,,2B,E | 
[V:1] !accent!c4B2 | 
[V:2] A,^G,B,A,=G,2 | 
[V:3] FAc^deg | 
[V:4] ^DCDFGE | 
[V:1] A^GBA!accent!=G2 | 
[V:2] !accent!F,4E,2 | 
[V:3] a^d^fBge | 
[V:4] ^DBD2EG | 
[V:1] FE^DEG,A, | 
[V:2] C,6 | 
[V:3] EeEG,E,E- | 
[V:4] C2C,2[C,2C,,2] | 
[V:1] B, z/ ^G/F4- | 
[V:2] !wedge!B,,2F,,4 | 
[V:3] E^D2^CDC & x2^A,4 | 
[V:4] {/B,,,}F,2>E,2F,E, & B,,2!accent!F,,4 | 
[V:1] F2F4- | 
[V:2] B,,2F,,4 | 
[V:3] ^GF2E^D^C & B,2!accent!^A,4 | 
[V:4] [^D,2B,,2]^C,^G,F,E, & x2F,,4 | 
[V:1] F2z2z2 | 
[V:2] B,,2z2z2 | 
[V:3] B,F,B,^DFB | 
[V:4] ^D,B,,D,F,B,^D | 
[V:1] z2.[^A2E2].[A2E2] | 
[V:2] .F,,2.F,2.F,2 | 
[V:3] ^AF^cAe^d | 
[V:4] EF,^A,E^GF | 
[V:1] [B^D] z!accent!G4 | 
[V:2] .B, z[K:clef=tenor]!accent!E4 | 
[V:3] B2^Ae^d^c | 
[V:4] ^D2=G2FE & B,6 | 
[V:1] F2^c2^A2 | 
[V:2] ^D2!accent!E4 | 
[V:3] Bf2e^d^c & x2^A4 | 
[V:4] ^D zG2FE & B,6 | 
[V:1] !accent!B4^D^G | 
[V:2] ^D4z2[K:clef=bass] | 
[V:3] BFB^dfb | 
[V:4] [^DB,]B,DFB^d[K:clef=treble] | 
[V:1] F2z2.[^A2E2] | 
[V:2] .F,,2.F,2.F,2 | 
[V:3] ^af^c'ae'^d' | 
[V:4] eF^Ae^gf | 
[V:1] .[B2^D2]z2z2 | 
[V:2] !wedge!B,, z!accent!F,4 | 
[V:3] b2!accent!^a^c'e'^d' | 
[V:4] x2^ce^gf & [^d2B2]F4 | 
[V:1] z2F4 | 
[V:2] B,2!accent!F,4 | 
[V:3] !accent!b^d' !accent!^a^c'e'd' | 
[V:4] ^df ^ce^gf & B2F4 | 
[V:1] B2z2z2 | 
[V:2] B,2F,,4 | 
[V:3] b2!accent!^a^c'e'^d' | 
[V:4] x2^ce=gf & [^d2B2]F4 | 
[V:1] z2F4 | 
[V:2] B,,2F,,4 | 
[V:3] b^d' !accent!^a^c'e'=d' | 
[V:4] x2^cegf & [^d2B2]F4 | 
[V:1] B2z2z2 | 
[V:2] B,,2!accent!D,4- | 
[V:3] bd' ^ab ab | 
[V:4] [d2B2]^cd cd | 
[V:1] z6 | 
[V:2] D,6- | 
[V:3] ^d!wedge![ae] ^c!wedge![g=d] B!wedge![f=c] | 
[V:4] B!wedge!c ^A!wedge!B ^G!wedge!=A | 
[V:1] z6 | 
[V:2] D,6- | 
[V:3] ^A.[eB] ^G.[d=A] F.[c=G] | 
[V:4] ^FG ^EF ^D=E[K:clef=bass] | 
[V:1] z6 | 
[V:2] D,6 | 
[V:3] ^E[BF] ^D[A=E] ^C[G=D] | 
[V:4] ^CD B,=C ^A,B, | 
[V:1] z6 | 
[V:2] D,2z2z2 | 
[V:3] [F2=C2][DA,][_EC] [DA,][EC] | 
[V:4] [A,2D,2]^F,G, F,G, | 
[V:1] z6 | 
[V:2] z6 | 
[V:3] !accent![DB,][^FC] [DA,][_EC] [DA,][EC] | 
[V:4] ^G,A, F,=G, F,G, | 
[V:1] z6 | 
[V:2] z6 | 
[V:3] !accent![DB,][^FC] [DA,][_EC] [DA,][EC] | 
[V:4] ^G,A, F,=G, F,G, | 
[V:1] z2z2D2 | 
[V:2] z6 | 
[V:3] !accent![DB,][^FC] [DA,][EC] [DA,]C | 
[V:4] ^G,A,F,D,E,F, | 
[V:1] G2A2B2 | 
[V:2] [K:clef=tenor]B,2C2!accent!DC | 
[V:3] B,G,E,CF,D | 
[V:4] G,E,C,A,,D,D,, | 
[V:1] G4A2 | 
[V:2] B,2CB,A,2 | 
[V:3] B,G,A,B,CD | 
[V:4] G,,B,,C,D,E,^F, | 
[V:1] B4cB | 
[V:2] G,2G2E2 | 
[V:3] B,CDBAG | 
[V:4] G,A,B,DCE | 
[V:1] A2B2E2 | 
[V:2] FED4 | 
[V:3] FAd=FEB | 
[V:4] DCB,DCB, | 
[V:1] A2B2c2 | 
[V:2] C2D2ED | 
[V:3] cA=FB^Ge | 
[V:4] A,=FDB,EE, | 
[V:1] !accent!A4B2 | 
[V:2] C2=FED2 | 
[V:3] cABcde | 
[V:4] A,CDE^F^G | 
[V:1] c2>d2e2 | 
[V:2] C2A,2AG | 
[V:3] cdebae | 
[V:4] ABcBc^c | 
[V:1] A2>z2z2 | 
[V:2] FED2z2 | 
[V:3] fga^c'd'f | 
[V:4] defgfd[K:clef=treble] | 
[V:1] !accent!D6 | 
[V:2] z6 | 
[V:3] d'c'2b_ba- & e2_ed^c=c | 
[V:4] cAFGEF | 
[V:1] G2z2z2 | 
[V:2] z2!accent!A,4 | 
[V:3] ag2^f=fe- & B2_BA^G=G | 
[V:4] GE^CDB,C[K:clef=bass] | 
[V:1] z2!accent!E4 | 
[V:2] D2z2z2[K:clef=bass] | 
[V:3] ed2^c=cB- & =F2E2^D=D | 
[V:4] D_B,^G,A,F,G, | 
[V:1] A2z2z2 | 
[V:2] z2B,,2A,,B,, | 
[V:3] BA2G^FG & C2B,2[_EC]D | 
[V:4] A,=F,^D,E,A,,B,, | 
[V:1] E^DEFGA | 
[V:2] C,6 | 
[V:3] E4_E2 & [G6C6G,6] | 
[V:4] C,6 | 
[V:1] BcedBG | 
[V:2] G,,6 | 
[V:3] [G6D6B,6G,6] | 
[V:4] G,,6 | 
[V:1] E4c2 | 
[V:2] C,6 | 
[V:3] d4c2 & [G6E6] | 
[V:4] !trill!C,B,,C,D,E,F, | 
[V:1] D4B2- | 
[V:2] G,,6 | 
[V:3] c4B2 & [G6D6] | 
[V:4] G,A,CB,G,D, | 
[V:1] B2G2^F2 | 
[V:2] G,,^F,,G,,A,,B,,^D, | 
[V:3] B4A2 & D4^DF | 
[V:4] G,,4B,,2 | 
[V:1] !accent!E4G2 | 
[V:2] E,F,A,G,E,^C, | 
[V:3] A2G4 & E6 | 
[V:4] E,4^C,2 | 
[V:1] D2^CD =cB |[1 
[V:2] D,2z2.D,,2 | 
[V:3] [D2B,2]z2!accent![EC^F,]D | 
[V:4] D,2z2[D,2D,,2] | 
[V:1] G2z2B2 :|][2 
[V:2] .G,,2z2G,2 :|]  
[V:3] [GB,G,]DGB!accent!d2 :|]  
[V:4] G,,2z2D2 :|]  
[V:1] G2z2 |] 
[V:2] .G,,2z2 |]  
[V:3] G2z2 |]  
[V:4] G,,2G,,,2 |]  
[V:1]  [K:C] [M:3/4]AG [I:setbarnb 81]| 
[V:2]  [K:C] [M:3/4]z2[K:clef=tenor] | 
[V:3]  [K:C] [M:3/4]z2 | 
[V:4]  [K:C] [M:3/4]z2 | 
[V:1] F2GFEF | 
[V:2] !wedge!D2A,2B,2 | 
[V:3] [F6D6] & B,2A,2G,2 | 
[V:4] G,,6 | 
[V:1] E2Gce2 | 
[V:2] C2G,2G2 | 
[V:3] E2EEG,2 & x3E3 | 
[V:4] G,4x2 & [C,6C,,6] | 
[V:1] d2edBG | 
[V:2] ^F2GFDF | 
[V:3] [F4D4G,4][F2D2G,2] | 
[V:4] G,,4G,,2 | 
[V:1] !accent!g6- | 
[V:2] E6- | 
[V:3] [E4C4G,4]G2 | 
[V:4] C,4z2 | 
[V:1] g4z2 | 
[V:2] !accent!E4z2 | 
[V:3] G>ee2d2 & G4[G2F2] | 
[V:4] z2z2G,2 | 
[V:1] z6 | 
[V:2] z6 | 
[V:3] [c4G4][B2-F2] & E xx4 | 
[V:4] G,>EE2D2 & G,6 | 
[V:1] z6 | 
[V:2] z6 | 
[V:3] B>AA2[G2D2] & E4x2 | 
[V:4] C4B,2 & G,4x2 | 
[V:1] !accent!D4DE | 
[V:2] [K:clef=bass].D,2.G,,2z2[K:clef=tenor] | 
[V:3] [^F2D2C2][G2D2B,2]z2 | 
[V:4] [A,2D,2][D,2G,,2]z2 | 
[V:1] F2EFGF | 
[V:2] D2A,2D2 | 
[V:3] A2A>AA2 & [F4D4]x2 | 
[V:4] A,2A,>A,A,2 & D,2D,,2F,,2 | 
[V:1] E2Ace2 | 
[V:2] C2A,2C2[K:clef=bass] | 
[V:3] !accent![A6E6C6A,6] | 
[V:4] [A,,6A,,,6] | 
[V:1] d2edcA | 
[V:2] [C6D,6] | 
[V:3] A4x2 & ^F2F>FF2 | 
[V:4] [D,6D,,6] | 
[V:1] d4G2 | 
[V:2] C2B,2z2[K:clef=tenor] & !accent![D,4G,,4]x2 | 
[V:3] !accent!A4G2 & =F6 | 
[V:4] G,,6 | 
[V:1] G2>e2de | 
[V:2] G,2>E2DE | 
[V:3] [E4C4G,4][F2B,2G,2] | 
[V:4] [C,6C,,6]- | 
[V:1] c2BAG^F | 
[V:2] C2B,A,!mordent!G,^F, | 
[V:3] [E4C4G,4][^D2C2A,2] | 
[V:4] [C,6C,,6] | 
[V:1] G2>e2de | 
[V:2] G,2>E2DE | 
[V:3] [E4C4G,4][F2B,2G,2] | 
[V:4] [C,6C,,6]- | 
[V:1] c2z2 :|]|:  
[V:2] C2z2 :|]|:  
[V:3] [E2C2G,2]z2 :|]|:  
[V:4] [C,2C,,2]C,,2 :|]|:  
[V:1] EF [I:setbarnb 97]| 
[V:2] [K:clef=bass]E,F, | 
[V:3] EF | 
[V:4] E,F, | 
[V:1] G zz2z2 | 
[V:2] !wedge!G, zz2z2 | 
[V:3] G2>_B2AB | 
[V:4] G,2>_B,2A,B, | 
[V:1] z2z2G,A, | 
[V:2] z2z2G,,A,, | 
[V:3] GE^C_B,G,A, | 
[V:4] G,E,^C,_B,,G,,A,, | 
[V:1] _B,2z2z2 | 
[V:2] _B,,2z2z2 | 
[V:3] _B,2z _BAB | 
[V:4] _B,,2z _B,A,B, | 
[V:1] z2[_B2E2G,2][B2D2G,2] | 
[V:2] z2E,2D,2 | 
[V:3] G2[^c2_B2G2][d2B2G2] | 
[V:4] G,2.[E2E,2].[D2D,2] | 
[V:1] [_B2E2G,2]z2z2 | 
[V:2] ^C,2z2z2 | 
[V:3] [e2_B2G2]z _bab | 
[V:4] [^C2^C,2]z[K:clef=treble] _BAB | 
[V:1] z2z2GA | 
[V:2] z2z2G,A, | 
[V:3] ge^c_BGA | 
[V:4] GE^C[K:clef=bass]_B,G,A, | 
[V:1] !wedge!_B2z2G,A, | 
[V:2] !wedge!_B,2z2G,,A,, | 
[V:3] _BGE^CG,A, | 
[V:4] _B,G,E,^C,G,,A,, | 
[V:1] _B,2z2^A,2 | 
[V:2] !wedge!_B,,2z2C,2 | 
[V:3] _B,2z2!accent![^A,2E,2] | 
[V:4] _B,,2z2[=C,2=C,,2] | 
[V:1] =B,2z2z2 | 
[V:2] =B,,2z2z2 | 
[V:3] [B,2^D,2]z cBc | 
[V:4] [B,,2B,,,2]z CB,C | 
[V:1] z2z2A,B, | 
[V:2] z2z2A,,B,, | 
[V:3] A^F^DCA,B, | 
[V:4] A,^F,^D,C,A,,B,, | 
[V:1] C2z2z2 | 
[V:2] !wedge!C,2z2z2 | 
[V:3] C2z cBc | 
[V:4] C,2z CB,C | 
[V:1] z2!wedge![^d2^F2]!wedge![e2A2E2] | 
[V:2] z2!wedge!C,,2!accent!C,2 | 
[V:3] A2.[^d2A2^F2].[e2A2E2] | 
[V:4] A,2.[C2C,2].[C2C,2] | 
[V:1] !wedge![^f2A2^D2]z2z2 | 
[V:2] !wedge!B,,2z2z2 | 
[V:3] .[^f2A2^D2]z c'bc' | 
[V:4] .[B,2B,,2]z[K:clef=treble] cBc | 
[V:1] z2z2AB | 
[V:2] z2z2A,B, | 
[V:3] a^f^dcAB | 
[V:4] A^F^DCA,B,[K:clef=bass] | 
[V:1] c2z2A,B, | 
[V:2] C2z2A,,B,, | 
[V:3] cA^F^DA,B, | 
[V:4] CA,^F,^D,A,,B,, | 
[V:1] C4B,2 | 
[V:2] C,4B,,2 | 
[V:3] C2z2[^F2^D2B,2A,2] | 
[V:4] C,2z2B,,2 | 
[V:1] B,2>G2^FG | 
[V:2] B,,2>G,2^F,G, | 
[V:3] [G2E2B,2G,2]!accent![BGE]B, !accent![BF]A, | 
[V:4] B,,2>B,,,2^C,,^D,, | 
[V:1] E2z2z2 | 
[V:2] E,2z2z2 | 
[V:3] [EG,]B,EGe2 | 
[V:4] E,,2>E,2D,C, | 
[V:1] B,2>G2^FG | 
[V:2] z6 | 
[V:3] B2!accent![bge]B !accent![b^f]A | 
[V:4] B,,2>B,,,2^C,,^D,, | 
[V:1] E2z2z2 | 
[V:2] z6 | 
[V:3] [eG]Bege'2 | 
[V:4] E,,2z2E,,F,, | 
[V:1] d2>B2dA | 
[V:2] [K:clef=tenor]F2>D2FC | 
[V:3] [g'4f'4d'4b4g4f4]z2 | 
[V:4] [G,,4G,,,4]z2 | 
[V:1] G2z2z2 | 
[V:2] B,2z2z2 | 
[V:3] [B2G2F2][b2g2][b'2g'2] | 
[V:4] [D2G,2][f2d2G2][f'2d'2g2] | 
[V:1] d^cedBA | 
[V:2] FEGFDC | 
[V:3] !accent![F6D6B,6G,6]- | 
[V:4] [G,,6G,,,6]- | 
[V:1] G6 | 
[V:2] B,2!accent!F2E2 | 
[V:3] [F6D6B,6G,6] | 
[V:4] [G,,6G,,,6] | 
[V:1] F2GFEF | 
[V:2] !wedge!D2A,2B,2 | 
[V:3] [F6D6] & B,2A,2G,2 | 
[V:4] G,,6 | 
[V:1] E2Gce2 | 
[V:2] C2G,2G2 | 
[V:3] E2EEG,2 & x3E3 | 
[V:4] G,4x2 & [C,6C,,6] | 
[V:1] d2edBG | 
[V:2] F2GFDF | 
[V:3] [F4D4B,4G,4][F2D2G,2] | 
[V:4] G,,4G,,2 | 
[V:1] !accent!g6- | 
[V:2] E6- | 
[V:3] [E4C4G,4]G2 | 
[V:4] C,4z2 | 
[V:1] g4z2 | 
[V:2] !accent!E4z2 | 
[V:3] G>ee2d2 & G4[G2F2] | 
[V:4] z2z2G,2 | 
[V:1] z6 | 
[V:2] z6 | 
[V:3] [c4G4][B2-F2] & E xx4 | 
[V:4] G,>EE2D2 & G,6 | 
[V:1] z6 | 
[V:2] z6 | 
[V:3] B>AA2[G2D2] & E4x2 | 
[V:4] C4B,2 & G,6 | 
[V:1] D4DE | 
[V:2] [K:clef=bass].D,2.G,,2z2[K:clef=tenor] | 
[V:3] [^F2D2C2][G2D2B,2]z2 | 
[V:4] [A,2D,2][D,2G,,2]z2 | 
[V:1] F2EFGF | 
[V:2] D2A,2D2 | 
[V:3] A2A>AA2 & [F4D4]x2 | 
[V:4] A,2A,>A,A,2 & D,2D,,2F,,2 | 
[V:1] E2Ace2 | 
[V:2] C2A,2C2[K:clef=bass] | 
[V:3] [A6E6C6A,6] | 
[V:4] [A,,6A,,,6] | 
[V:1] d2edcA | 
[V:2] [C6D,6] | 
[V:3] A4x2 & ^F2F>FF2 | 
[V:4] [D,6D,,6] | 
[V:1] d4G2 | 
[V:2] C2B,2z2[K:clef=tenor] & [D,4G,,4]x2 | 
[V:3] !accent![A4=F4]G2 & C2B,4 | 
[V:4] G,,6 | 
[V:1] G2>e2de | 
[V:2] G,2>E2DE | 
[V:3] [E4C4G,4][F2B,2G,2] | 
[V:4] [C,6C,,6]- | 
[V:1] c2BAG^F | 
[V:2] C2B,A,!mordent!G,^F, | 
[V:3] [E4C4G,4][^D2C2A,2] | 
[V:4] [C,6C,,6] | 
[V:1] G2>e2de | 
[V:2] G,2>E2!accent!DE | 
[V:3] [=E4C4G,4][F2B,2G,2] | 
[V:4] [C,6C,,6]- | 
[V:1] c2z2 :|]  
[V:2] C2z2 :|]  
[V:3] [E2C2G,2]z2 :|]  
[V:4] [C,2C,,2]C,,2 :|]
